1337-light.svg

<svg xmlns="http://www.w3.org/2000/svg" xmlns:xlink="http://www.w3.org/1999/xlink" width="500" height="513.764" viewBox="0 0 500 513.764">
  <defs>
    <radialGradient id="radial-gradient" cx="0.5" cy="0.468" r="0.494" gradientTransform="matrix(1.018, 0.005, -0.006, 1.053, -0.006, -0.027)" gradientUnits="objectBoundingBox">
      <stop offset="0" stop-color="#fff" stop-opacity="0"/>
      <stop offset="0.761" stop-color="#fff"/>
      <stop offset="1" stop-color="#fff"/>
    </radialGradient>
    <linearGradient id="linear-gradient" x1="0.31" y1="-0.434" x2="0.742" y2="1.389" gradientUnits="objectBoundingBox">
      <stop offset="0" stop-color="#57c0d6"/>
      <stop offset="1" stop-color="#57d6d2"/>
    </linearGradient>
  </defs>
  <g id="Leet_logo" data-name="Leet logo" transform="translate(0 4.764)">
    <rect id="Rectangle_4" data-name="Rectangle 4" width="500" height="500" fill="#fff"/>
    <g id="Lines" transform="translate(-706 -32)">
      <line id="Line_6" data-name="Line 6" y1="140.832" x2="141.114" transform="translate(827.386 43.5)" fill="none" stroke="#ededed" stroke-linecap="round" stroke-width="23"/>
      <line id="Line_6-2" data-name="Line 6" y1="140.832" x2="141.114" transform="translate(968.386 43.5)" fill="none" stroke="#ededed" stroke-linecap="round" stroke-width="23"/>
      <line id="Line_6-3" data-name="Line 6" y1="66.832" x2="67.114" transform="translate(1109.386 117.5)" fill="none" stroke="#ededed" stroke-linecap="round" stroke-width="23"/>
      <line id="Line_6-4" data-name="Line 6" y1="155.5" x2="155.324" transform="translate(723.5 132)" fill="none" stroke="#ededed" stroke-linecap="round" stroke-width="23"/>
      <line id="Line_6-5" data-name="Line 6" y1="195.332" x2="192.438" transform="translate(827.386 132)" fill="none" stroke="#ededed" stroke-linecap="round" stroke-width="23"/>
      <line id="Line_6-6" data-name="Line 6" y1="195.332" x2="192.438" transform="translate(968.386 132)" fill="none" stroke="#ededed" stroke-linecap="round" stroke-width="23"/>
      <line id="Line_6-7" data-name="Line 6" y1="67.832" x2="67.114" transform="translate(1109.386 259.5)" fill="none" stroke="#ededed" stroke-linecap="round" stroke-width="23"/>
      <line id="Line_6-8" data-name="Line 6" y1="155.5" x2="155.324" transform="translate(723.5 275)" fill="none" stroke="#ededed" stroke-linecap="round" stroke-width="23"/>
      <line id="Line_6-9" data-name="Line 6" y1="195.332" x2="192.438" transform="translate(827.386 275)" fill="none" stroke="#ededed" stroke-linecap="round" stroke-width="23"/>
      <line id="Line_6-10" data-name="Line 6" y1="195.332" x2="192.438" transform="translate(968.386 275)" fill="none" stroke="#ededed" stroke-linecap="round" stroke-width="23"/>
      <line id="Line_6-11" data-name="Line 6" y1="97.5" x2="97.324" transform="translate(781.5 418)" fill="none" stroke="#ededed" stroke-linecap="round" stroke-width="23"/>
      <line id="Line_6-12" data-name="Line 6" y1="97.5" x2="97.324" transform="translate(922.5 418)" fill="none" stroke="#ededed" stroke-linecap="round" stroke-width="23"/>
    </g>
    <rect id="Rectangle_3" data-name="Rectangle 3" width="500" height="509" fill="url(#radial-gradient)"/>
    <g id="Logo" transform="translate(-676.803 -159.006)">
      <g id="Group_9" data-name="Group 9" transform="translate(835.87 333.994)">
        <path id="Path_17" data-name="Path 17" d="M0,60.788,61.242,0" transform="translate(87.903)" fill="#57cfd6" stroke="#c8c8c8" stroke-linecap="round" stroke-width="14"/>
        <path id="Path_19" data-name="Path 19" d="M0,90.091,89.432,0" transform="translate(0 59.259)" fill="#57cfd6" stroke="#c8c8c8" stroke-linecap="round" stroke-width="14"/>
        <g id="Path_18" data-name="Path 18" transform="translate(71.569 44.454)" fill="#57cfd6">
          <path d="M 16.33406639099121 30.16813659667969 C 12.63885593414307 30.16813659667969 9.164816856384277 28.72913551330566 6.551906585693359 26.11622619628906 C 3.938996315002441 23.50331687927246 2.499996423721313 20.02927589416504 2.499996423721313 16.33406639099121 C 2.499996423721313 12.63885593414307 3.938996315002441 9.164816856384277 6.551906585693359 6.551906585693359 C 9.164816856384277 3.938996315002441 12.63885593414307 2.499996423721313 16.33406639099121 2.499996423721313 C 20.02927589416504 2.499996423721313 23.50331687927246 3.938996315002441 26.11622619628906 6.551906585693359 C 28.72913551330566 9.164816856384277 30.16813659667969 12.63885593414307 30.16813659667969 16.33406639099121 C 30.16813659667969 20.02927589416504 28.72913551330566 23.50331687927246 26.11622619628906 26.11622619628906 C 23.50331687927246 28.72913551330566 20.02927589416504 30.16813659667969 16.33406639099121 30.16813659667969 Z" stroke="none"/>
          <path d="M 16.33406639099121 4.999996185302734 C 13.30662727355957 4.999996185302734 10.46038627624512 6.178945541381836 8.319665908813477 8.319665908813477 C 6.178945541381836 10.46038627624512 4.999996185302734 13.30662727355957 4.999996185302734 16.33406639099121 C 4.999996185302734 19.36150741577148 6.178945541381836 22.20773696899414 8.319665908813477 24.34846496582031 C 10.46039581298828 26.48918533325195 13.30662727355957 27.66813659667969 16.33406639099121 27.66813659667969 C 19.36150741577148 27.66813659667969 22.20773696899414 26.48918533325195 24.34845733642578 24.34845733642578 C 26.48918533325195 22.20773696899414 27.66813659667969 19.36150741577148 27.66813659667969 16.33406639099121 C 27.66813659667969 13.30662727355957 26.48918533325195 10.46039581298828 24.34846496582031 8.319665908813477 C 22.20773696899414 6.178945541381836 19.36150741577148 4.999996185302734 16.33406639099121 4.999996185302734 M 16.33406639099121 -3.814697265625e-06 C 25.35511589050293 -3.814697265625e-06 32.66813659667969 7.313005447387695 32.66813659667969 16.33406639099121 C 32.66813659667969 25.35511589050293 25.35511589050293 32.66813659667969 16.33406639099121 32.66813659667969 C 7.313005447387695 32.66813659667969 -3.814697265625e-06 25.35511589050293 -3.814697265625e-06 16.33406639099121 C -3.814697265625e-06 7.313005447387695 7.313005447387695 -3.814697265625e-06 16.33406639099121 -3.814697265625e-06 Z" stroke="none" fill="#fff"/>
        </g>
      </g>
      <g id="Path_23" data-name="Path 23" transform="translate(810.803 416.006)" stroke-linecap="round" fill="url(#linear-gradient)">
        <path d="M 215.5490264892578 1.000013470649719 L 214.5490264892578 1.000013470649719 L 204.2658081054688 1.000013470649719 L 203.2658081054688 1.000013470649719 L 203.2658081054688 1.34548608912155e-05 L 203.2658081054688 -36.1655158996582 L 191.3483276367188 -36.1655158996582 L 190.3483276367188 -36.1655158996582 L 190.3483276367188 -37.1655158996582 L 190.3483276367188 -45.51268005371094 L 190.3483276367188 -46.51268005371094 L 191.3483276367188 -46.51268005371094 L 227.5299682617188 -46.51268005371094 L 228.5299682617188 -46.51268005371094 L 228.5299682617188 -45.51268005371094 L 228.5299682617188 -37.1655158996582 L 228.5299682617188 -36.1655158996582 L 227.5299682617188 -36.1655158996582 L 215.5490264892578 -36.1655158996582 L 215.5490264892578 1.34548608912155e-05 L 215.5490264892578 1.000013470649719 Z M 159.9547119140625 1.000013470649719 L 158.9547119140625 1.000013470649719 L 131.6598052978516 1.000013470649719 L 130.6598052978516 1.000013470649719 L 130.6598052978516 1.34548608912155e-05 L 130.6598052978516 -45.51268005371094 L 130.6598052978516 -46.51268005371094 L 131.6598052978516 -46.51268005371094 L 157.9073638916016 -46.51268005371094 L 158.9073638916016 -46.51268005371094 L 158.9073638916016 -45.51268005371094 L 158.9073638916016 -37.1655158996582 L 158.9073638916016 -36.1655158996582 L 157.9073638916016 -36.1655158996582 L 142.9112396240234 -36.1655158996582 L 142.9112396240234 -28.04101371765137 L 156.7965240478516 -28.04101371765137 L 157.7965240478516 -28.04101371765137 L 157.7965240478516 -27.04101371765137 L 157.7965240478516 -18.7255973815918 L 157.7965240478516 -17.7255973815918 L 156.7965240478516 -17.7255973815918 L 142.9112396240234 -17.7255973815918 L 142.9112396240234 -9.315430641174316 L 158.9547119140625 -9.315430641174316 L 159.9547119140625 -9.315430641174316 L 159.9547119140625 -8.315430641174316 L 159.9547119140625 1.34548608912155e-05 L 159.9547119140625 1.000013470649719 Z M 96.04499816894531 1.000013470649719 L 95.04499816894531 1.000013470649719 L 67.75005340576172 1.000013470649719 L 66.75005340576172 1.000013470649719 L 66.75005340576172 1.34548608912155e-05 L 66.75005340576172 -45.51268005371094 L 66.75005340576172 -46.51268005371094 L 67.75005340576172 -46.51268005371094 L 93.99763488769531 -46.51268005371094 L 94.99763488769531 -46.51268005371094 L 94.99763488769531 -45.51268005371094 L 94.99763488769531 -37.1655158996582 L 94.99763488769531 -36.1655158996582 L 93.99763488769531 -36.1655158996582 L 79.00152587890625 -36.1655158996582 L 79.00152587890625 -28.04101371765137 L 92.88677215576172 -28.04101371765137 L 93.88677215576172 -28.04101371765137 L 93.88677215576172 -27.04101371765137 L 93.88677215576172 -18.7255973815918 L 93.88677215576172 -17.7255973815918 L 92.88677215576172 -17.7255973815918 L 79.00152587890625 -17.7255973815918 L 79.00152587890625 -9.315430641174316 L 95.04499816894531 -9.315430641174316 L 96.04499816894531 -9.315430641174316 L 96.04499816894531 -8.315430641174316 L 96.04499816894531 1.34548608912155e-05 L 96.04499816894531 1.000013470649719 Z M 33.30957794189453 1.000013470649719 L 32.30957794189453 1.000013470649719 L 5.205078601837158 1.000013470649719 L 4.205078601837158 1.000013470649719 L 4.205078601837158 1.34548608912155e-05 L 4.205078601837158 -45.51268005371094 L 4.205078601837158 -46.51268005371094 L 5.205078601837158 -46.51268005371094 L 15.45655059814453 -46.51268005371094 L 16.45655059814453 -46.51268005371094 L 16.45655059814453 -45.51268005371094 L 16.45655059814453 -9.315430641174316 L 32.30957794189453 -9.315430641174316 L 33.30957794189453 -9.315430641174316 L 33.30957794189453 -8.315430641174316 L 33.30957794189453 1.34548608912155e-05 L 33.30957794189453 1.000013470649719 Z" stroke="none"/>
        <path d="M 214.5490264892578 5.284926373860799e-06 L 214.5490264892578 -37.16552352905273 L 227.5299682617188 -37.16552352905273 L 227.5299682617188 -45.51269912719727 L 191.3483123779297 -45.51269912719727 L 191.3483123779297 -37.16552352905273 L 204.2658233642578 -37.16552352905273 L 204.2658233642578 5.284926373860799e-06 L 214.5490264892578 5.284926373860799e-06 M 158.9546966552734 5.284926373860799e-06 L 158.9546966552734 -8.315436363220215 L 141.9112548828125 -8.315436363220215 L 141.9112548828125 -18.72558212280273 L 156.7965240478516 -18.72558212280273 L 156.7965240478516 -27.04102325439453 L 141.9112548828125 -27.04102325439453 L 141.9112548828125 -37.16552352905273 L 157.9073486328125 -37.16552352905273 L 157.9073486328125 -45.51269912719727 L 131.6597900390625 -45.51269912719727 L 131.6597900390625 5.284926373860799e-06 L 158.9546966552734 5.284926373860799e-06 M 95.04499053955078 5.284926373860799e-06 L 95.04499053955078 -8.315436363220215 L 78.00152587890625 -8.315436363220215 L 78.00152587890625 -18.72558212280273 L 92.88678741455078 -18.72558212280273 L 92.88678741455078 -27.04102325439453 L 78.00152587890625 -27.04102325439453 L 78.00152587890625 -37.16552352905273 L 93.99761199951172 -37.16552352905273 L 93.99761199951172 -45.51269912719727 L 67.75005340576172 -45.51269912719727 L 67.75005340576172 5.284926373860799e-06 L 95.04499053955078 5.284926373860799e-06 M 32.3095817565918 5.284926373860799e-06 L 32.3095817565918 -8.315436363220215 L 15.45655250549316 -8.315436363220215 L 15.45655250549316 -45.51269912719727 L 5.205081939697266 -45.51269912719727 L 5.205081939697266 5.284926373860799e-06 L 32.3095817565918 5.284926373860799e-06 M 216.5490264892578 2.00000524520874 L 214.5490264892578 2.00000524520874 L 204.2658233642578 2.00000524520874 L 202.2658233642578 2.00000524520874 L 202.2658233642578 5.284926373860799e-06 L 202.2658233642578 -35.16552352905273 L 191.3483123779297 -35.16552352905273 L 189.3483123779297 -35.16552352905273 L 189.3483123779297 -37.16552352905273 L 189.3483123779297 -45.51269912719727 L 189.3483123779297 -47.51269912719727 L 191.3483123779297 -47.51269912719727 L 227.5299682617188 -47.51269912719727 L 229.5299682617188 -47.51269912719727 L 229.5299682617188 -45.51269912719727 L 229.5299682617188 -37.16552352905273 L 229.5299682617188 -35.16552352905273 L 227.5299682617188 -35.16552352905273 L 216.5490264892578 -35.16552352905273 L 216.5490264892578 5.284926373860799e-06 L 216.5490264892578 2.00000524520874 Z M 160.9546966552734 2.00000524520874 L 158.9546966552734 2.00000524520874 L 131.6597900390625 2.00000524520874 L 129.6597900390625 2.00000524520874 L 129.6597900390625 5.284926373860799e-06 L 129.6597900390625 -45.51269912719727 L 129.6597900390625 -47.51269912719727 L 131.6597900390625 -47.51269912719727 L 157.9073486328125 -47.51269912719727 L 159.9073486328125 -47.51269912719727 L 159.9073486328125 -45.51269912719727 L 159.9073486328125 -37.16552352905273 L 159.9073486328125 -35.16552352905273 L 157.9073486328125 -35.16552352905273 L 143.9112548828125 -35.16552352905273 L 143.9112548828125 -29.04102325439453 L 156.7965240478516 -29.04102325439453 L 158.7965240478516 -29.04102325439453 L 158.7965240478516 -27.04102325439453 L 158.7965240478516 -18.72558212280273 L 158.7965240478516 -16.72558212280273 L 156.7965240478516 -16.72558212280273 L 143.9112548828125 -16.72558212280273 L 143.9112548828125 -10.31543636322021 L 158.9546966552734 -10.31543636322021 L 160.9546966552734 -10.31543636322021 L 160.9546966552734 -8.315436363220215 L 160.9546966552734 5.284926373860799e-06 L 160.9546966552734 2.00000524520874 Z M 97.04499053955078 2.00000524520874 L 95.04499053955078 2.00000524520874 L 67.75005340576172 2.00000524520874 L 65.75005340576172 2.00000524520874 L 65.75005340576172 5.284926373860799e-06 L 65.75005340576172 -45.51269912719727 L 65.75005340576172 -47.51269912719727 L 67.75005340576172 -47.51269912719727 L 93.99761199951172 -47.51269912719727 L 95.99761199951172 -47.51269912719727 L 95.99761199951172 -45.51269912719727 L 95.99761199951172 -37.16552352905273 L 95.99761199951172 -35.16552352905273 L 93.99761199951172 -35.16552352905273 L 80.00152587890625 -35.16552352905273 L 80.00152587890625 -29.04102325439453 L 92.88678741455078 -29.04102325439453 L 94.88678741455078 -29.04102325439453 L 94.88678741455078 -27.04102325439453 L 94.88678741455078 -18.72558212280273 L 94.88678741455078 -16.72558212280273 L 92.88678741455078 -16.72558212280273 L 80.00152587890625 -16.72558212280273 L 80.00152587890625 -10.31543636322021 L 95.04499053955078 -10.31543636322021 L 97.04499053955078 -10.31543636322021 L 97.04499053955078 -8.315436363220215 L 97.04499053955078 5.284926373860799e-06 L 97.04499053955078 2.00000524520874 Z M 34.3095817565918 2.00000524520874 L 32.3095817565918 2.00000524520874 L 5.205081939697266 2.00000524520874 L 3.205081939697266 2.00000524520874 L 3.205081939697266 5.284926373860799e-06 L 3.205081939697266 -45.51269912719727 L 3.205081939697266 -47.51269912719727 L 5.205081939697266 -47.51269912719727 L 15.45655250549316 -47.51269912719727 L 17.45655250549316 -47.51269912719727 L 17.45655250549316 -45.51269912719727 L 17.45655250549316 -10.31543636322021 L 32.3095817565918 -10.31543636322021 L 34.3095817565918 -10.31543636322021 L 34.3095817565918 -8.315436363220215 L 34.3095817565918 5.284926373860799e-06 L 34.3095817565918 2.00000524520874 Z" stroke="none" fill="#fff"/>
      </g>
    </g>
  </g>
</svg>

<?xml version="1.0" encoding="UTF-8"?>
<svg viewBox="0 0 500 513.76" xmlns="http://www.w3.org/2000/svg">
<defs>
<radialGradient id="a" cy=".468" r=".494" gradientTransform="matrix(1.018 .005 -.006 1.053 -.006 -.027)">
<stop stop-color="#fff" stop-opacity="0" offset="0"/>
<stop stop-color="#fff" offset=".761"/>
<stop stop-color="#fff" offset="1"/>
</radialGradient>
<linearGradient id="b" x1=".31" x2=".742" y1="-.434" y2="1.389">
<stop stop-color="#57c0d6" offset="0"/>
<stop stop-color="#57d6d2" offset="1"/>
</linearGradient>
</defs>
<g transform="translate(0 4.764)" data-name="Leet logo">
<rect width="500" height="500" fill="#fff" data-name="Rectangle 4"/>
<g transform="translate(-706 -32)" fill="none" stroke="#ededed" stroke-linecap="round" stroke-width="23">
<line transform="translate(827.39 43.5)" x2="141.11" y1="140.83" data-name="Line 6"/>
<line transform="translate(968.39 43.5)" x2="141.11" y1="140.83" data-name="Line 6"/>
<line transform="translate(1109.4 117.5)" x2="67.114" y1="66.832" data-name="Line 6"/>
<line transform="translate(723.5 132)" x2="155.32" y1="155.5" data-name="Line 6"/>
<line transform="translate(827.39 132)" x2="192.44" y1="195.33" data-name="Line 6"/>
<line transform="translate(968.39 132)" x2="192.44" y1="195.33" data-name="Line 6"/>
<line transform="translate(1109.4 259.5)" x2="67.114" y1="67.832" data-name="Line 6"/>
<line transform="translate(723.5 275)" x2="155.32" y1="155.5" data-name="Line 6"/>
<line transform="translate(827.39 275)" x2="192.44" y1="195.33" data-name="Line 6"/>
<line transform="translate(968.39 275)" x2="192.44" y1="195.33" data-name="Line 6"/>
<line transform="translate(781.5 418)" x2="97.324" y1="97.5" data-name="Line 6"/>
<line transform="translate(922.5 418)" x2="97.324" y1="97.5" data-name="Line 6"/>
</g>
<rect width="500" height="509" fill="url(#a)" data-name="Rectangle 3"/>
<g transform="translate(-676.8 -159.01)">
<g transform="translate(835.87 333.99)" fill="#57cfd6" data-name="Group 9">
<path transform="translate(87.903)" d="M0,60.788,61.242,0" stroke="#c8c8c8" stroke-linecap="round" stroke-width="14" data-name="Path 17"/>
<path transform="translate(0 59.259)" d="M0,90.091,89.432,0" stroke="#c8c8c8" stroke-linecap="round" stroke-width="14" data-name="Path 19"/>
<g transform="translate(71.569 44.454)" data-name="Path 18">
<path d="m16.334 30.168c-3.6952 0-7.1692-1.439-9.7822-4.0519s-4.0519-6.087-4.0519-9.7822c0-3.6952 1.439-7.1692 4.0519-9.7822s6.0869-4.0519 9.7822-4.0519c3.6952 0 7.1693 1.439 9.7822 4.0519s4.0519 6.0869 4.0519 9.7822c0 3.6952-1.439 7.1693-4.0519 9.7822s-6.087 4.0519-9.7822 4.0519z"/>
<path d="m16.334 5c-3.0274 0-5.8737 1.1789-8.0144 3.3197-2.1407 2.1407-3.3197 4.987-3.3197 8.0144 0 3.0274 1.1789 5.8737 3.3197 8.0144 2.1407 2.1407 4.987 3.3197 8.0144 3.3197 3.0274 0 5.8737-1.179 8.0144-3.3197 2.1407-2.1407 3.3197-4.9869 3.3197-8.0144 0-3.0274-1.179-5.8737-3.3197-8.0144-2.1407-2.1407-4.987-3.3197-8.0144-3.3197m0-5c9.021 0 16.334 7.313 16.334 16.334 0 9.021-7.313 16.334-16.334 16.334-9.0211 0-16.334-7.313-16.334-16.334 0-9.0211 7.313-16.334 16.334-16.334z" fill="#fff"/>
</g>
</g>
<g transform="translate(810.8 416.01)" fill="url(#b)" stroke-linecap="round" data-name="Path 23">
<path d="m215.55 1h-1-10.283-1v-1-36.166h-11.917-1v-1-8.3472-1h1 36.182 1v1 8.3472 1h-1-11.981v36.166 1zm-55.594 0h-1-27.295-1v-1-45.513-1h1 26.248 1v1 8.3472 1h-1-14.996v8.1245h13.885 1v1 8.3154 1h-1-13.885v8.4102h16.043 1v1 8.3154 1zm-63.91 0h-1-27.295-1v-1-45.513-1h1 26.248 1v1 8.3472 1h-1-14.996v8.1245h13.885 1v1 8.3154 1h-1-13.885v8.4102h16.043 1v1 8.3154 1zm-62.735 0h-1-27.104-1v-1-45.513-1h1 10.251 1v1 36.197h15.853 1v1 8.3154 1z"/>
<path d="m214.55 5.2849e-6v-37.166h12.981v-8.3472h-36.182v8.3472h12.918v37.166h10.283m-55.594 0v-8.3154h-17.043v-10.41h14.885v-8.3154h-14.885v-10.125h15.996v-8.3472h-26.248v45.513h27.295m-63.91 0v-8.3154h-17.043v-10.41h14.885v-8.3154h-14.885v-10.125h15.996v-8.3472h-26.248v45.513h27.295m-62.735 0v-8.3154h-16.853v-37.197h-10.251v45.513h27.104m184.24 2h-2-10.283-2v-2-35.166h-10.918-2v-2-8.3472-2h2 36.182 2v2 8.3472 2h-2-10.981v35.166 2zm-55.594 0h-2-27.295-2v-2-45.513-2h2 26.248 2v2 8.3472 2h-2-13.996v6.1245h12.885 2v2 8.3154 2h-2-12.885v6.4101h15.043 2v2 8.3154 2zm-63.91 0h-2-27.295-2v-2-45.513-2h2 26.248 2v2 8.3472 2h-2-13.996v6.1245h12.885 2v2 8.3154 2h-2-12.885v6.4101h15.043 2v2 8.3154 2zm-62.735 0h-2-27.104-2v-2-45.513-2h2 10.251 2v2 35.197h14.853 2v2 8.3154 2z" fill="#fff"/>
</g>
</g>
</g>
</svg>
